X:57
M:C|
L:1/8
K:D
fedB d3A|B3F A3E|F2D2D2:|
|:de|fedB ABde|fedB d3e|A3B ABde|f2e2e2de|fedB ABde|
fedB d3A|BdBF ABAE|F2D2D2:|

